src/assets/svg/non-visible.svg

<svg width="24" height="24" viewBox="0 0 24 24" fill="none" xmlns="http://www.w3.org/2000/svg">
<path d="M10.7429 5.09232C11.1494 5.03223 11.5686 5 12.0004 5C17.1054 5 20.4553 9.50484 21.5807 11.2868C21.7169 11.5025 21.785 11.6103 21.8231 11.7767C21.8518 11.9016 21.8517 12.0987 21.8231 12.2236C21.7849 12.3899 21.7164 12.4985 21.5792 12.7156C21.2793 13.1901 20.8222 13.8571 20.2165 14.5805M6.72432 6.71504C4.56225 8.1817 3.09445 10.2194 2.42111 11.2853C2.28428 11.5019 2.21587 11.6102 2.17774 11.7765C2.1491 11.9014 2.14909 12.0984 2.17771 12.2234C2.21583 12.3897 2.28393 12.4975 2.42013 12.7132C3.54554 14.4952 6.89541 19 12.0004 19C14.0588 19 15.8319 18.2676 17.2888 17.2766M3.00042 3L21.0004 21M9.8791 9.87868C9.3362 10.4216 9.00042 11.1716 9.00042 12C9.00042 13.6569 10.3436 15 12.0004 15C12.8288 15 13.5788 14.6642 14.1217 14.1213" stroke="white" stroke-width="1.5" stroke-linecap="round" stroke-linejoin="round"/>
</svg>

<svg xmlns="http://www.w3.org/2000/svg" viewBox="0 0 24 24"><path d="M10.743 5.092C11.149 5.032 11.569 5 12 5c5.105 0 8.455 4.505 9.58 6.287.137.215.205.323.243.49.029.125.029.322 0 .447-.038.166-.107.274-.244.492-.3.474-.757 1.141-1.363 1.865M6.724 6.715c-2.162 1.467-3.63 3.504-4.303 4.57-.137.217-.205.325-.243.492a1.173 1.173 0 0 0 0 .446c.038.167.106.274.242.49C3.546 14.495 6.895 19 12 19c2.059 0 3.832-.732 5.289-1.723M3 3l18 18M9.88 9.879a3 3 0 1 0 4.243 4.243" stroke="#fff" stroke-width="1.5" stroke-linecap="round" stroke-linejoin="round" fill="none" stroke="currentColor"/></svg>
